dist/images/misc/arrow.svg

<svg fill="none" height="61" viewBox="0 0 28 61" width="28" xmlns="http://www.w3.org/2000/svg"><path clip-rule="evenodd" d="m25.0614 38.0522c-.2251.5739-.4722 1.1415-.7492 1.6924-2.8453 5.6603-5.913 11.2012-9.129 16.6614-.5478.9297-1.1728 1.8167-1.7972 2.6998-.3201.4526-.9497.5525-1.4757.3214-.7585-.3326-1.3248-.8828-1.4632-1.6832-.2305-1.3301-.88985-2.4584-1.50862-3.6164-1.1656-2.1819-2.27701-4.3933-3.48929-6.5496-1.17439-2.0886-2.45224-4.1188-3.67231-6.1822-.27406-.4624-.51683-.9454-.73778-1.4354-.13973-.3099.14263-.7963.48804-.942.33345-.1406.6141-.0085.85624.1889.17718.1441.32663.3336.45456.5245 1.67939 2.5065 3.44967 4.9526 4.85373 7.6346 1.50459 2.8748 3.07933 5.7137 4.62753 8.5661.0328.0612.1178.0942.1792.1414.1248-.0471.3101-.0572.3675-.1475.7896-1.237 1.6029-2.4616 2.3301-3.7343 2.2222-3.8902 4.4132-7.798 6.6076-11.7042.5671-1.0094 1.0841-2.0475 1.6578-3.0537.1444-.2534.3892-.4885.6461-.6273.1685-.0912.4785-.0624.6556.0363.1719.0955.3139.335.3609.5361.0494.2099.0178.4683-.0626.6729zm-10.622 2.9713c-.1675 2.4619-.4239 4.9182-.6584 7.3752-.0213.2188-.1495.4334-.2528.6382-.1312.2609-.6964.4522-1.038.34-.3033-.0995-.5772-.2772-.6127-.6232-.0386-.3795-.0702-.7712-.0242-1.1472.4987-4.0661.5567-8.1577.7537-12.242.1671-3.4672.3605-6.9341.5422-10.401-.0297-.0011-.0594-.0027-.089-.0042.0087-2.3146.0189-4.6297.0251-6.9439.0119-4.2434.2848-8.4842.0843-12.73145-.0546-1.15218.0559-2.31311.1194-3.46829.0162-.29881.0909-.6192.2351-.876981.0936-.167639.3479-.286256.5537-.344584.2613-.074271.7061.198915.7471.420485.0559.30017.1199.6056.121.9087.0148 3.39219.0285 6.7853.0213 10.17782-.006 2.9324-.0822 5.865-.0491 8.7966.0302 2.6231.0513 5.2428-.0857 7.8654-.1246 2.3882-.174 4.7805-.2476 7.1715-.0519 1.6966-.0304 3.397-.1454 5.0889z" fill="#495057" fill-rule="evenodd"/></svg>

<svg width="28" height="61" viewBox="0 0 28 61" fill="none" xmlns="http://www.w3.org/2000/svg">
<path fill-rule="evenodd" clip-rule="evenodd" d="M25.0614 38.0522C24.8363 38.6261 24.5892 39.1937 24.3122 39.7446C21.4669 45.4049 18.3992 50.9458 15.1832 56.406C14.6354 57.3357 14.0104 58.2227 13.386 59.1058C13.0659 59.5584 12.4363 59.6583 11.9103 59.4272C11.1518 59.0946 10.5855 58.5444 10.4471 57.744C10.2166 56.4139 9.55725 55.2856 8.93848 54.1276C7.77288 51.9457 6.66147 49.7343 5.44919 47.578C4.2748 45.4894 2.99695 43.4592 1.77688 41.3958C1.50282 40.9334 1.26005 40.4504 1.0391 39.9604C0.89937 39.6505 1.18173 39.1641 1.52714 39.0184C1.86059 38.8778 2.14124 39.0099 2.38338 39.2073C2.56056 39.3514 2.71001 39.5409 2.83794 39.7318C4.51733 42.2383 6.28761 44.6844 7.69167 47.3664C9.19626 50.2412 10.771 53.0801 12.3192 55.9325C12.352 55.9937 12.437 56.0267 12.4984 56.0739C12.6232 56.0268 12.8085 56.0167 12.8659 55.9264C13.6555 54.6894 14.4688 53.4648 15.196 52.1921C17.4182 48.3019 19.6092 44.3941 21.8036 40.4879C22.3707 39.4785 22.8877 38.4404 23.4614 37.4342C23.6058 37.1808 23.8506 36.9457 24.1075 36.8069C24.276 36.7157 24.586 36.7445 24.7631 36.8432C24.935 36.9387 25.077 37.1782 25.124 37.3793C25.1734 37.5892 25.1418 37.8476 25.0614 38.0522ZM14.4394 41.0235C14.2719 43.4854 14.0155 45.9417 13.781 48.3987C13.7597 48.6175 13.6315 48.8321 13.5282 49.0369C13.397 49.2978 12.8318 49.4891 12.4902 49.3769C12.1869 49.2774 11.913 49.0997 11.8775 48.7537C11.8389 48.3742 11.8073 47.9825 11.8533 47.6065C12.352 43.5404 12.41 39.4488 12.607 35.3645C12.7741 31.8973 12.9675 28.4304 13.1492 24.9635C13.1195 24.9624 13.0898 24.9608 13.0602 24.9593C13.0689 22.6447 13.0791 20.3296 13.0853 18.0154C13.0972 13.772 13.3701 9.5312 13.1696 5.28395C13.115 4.13177 13.2255 2.97084 13.289 1.81566C13.3052 1.51685 13.3799 1.19646 13.5241 0.938679C13.6177 0.77104 13.872 0.652423 14.0778 0.594095C14.3391 0.519824 14.7839 0.79301 14.8249 1.01458C14.8808 1.31475 14.9448 1.62018 14.9459 1.92328C14.9607 5.31547 14.9744 8.70858 14.9672 12.1011C14.9612 15.0335 14.885 17.9661 14.9181 20.8977C14.9483 23.5208 14.9694 26.1405 14.8324 28.7631C14.7078 31.1513 14.6584 33.5436 14.5848 35.9346C14.5329 37.6312 14.5544 39.3316 14.4394 41.0235Z" fill="#495057"/>
</svg>
